chainCurrencyIcons/colored/1666600000-min.svg

<svg viewBox="0 0 128 128" fill="none" xmlns="http://www.w3.org/2000/svg"><rect width="128" height="128" rx="64" fill="url(#paint0_linear_101_2001)"/><g clip-path="url(#clip0_101_2001)"><path d="M84.468 28C80.3556 27.9968 76.41 29.6299 73.4972 32.5409C70.5845 35.4518 68.9426 39.4027 68.932 43.5263V60.7411C67.332 60.8494 65.696 60.9176 64 60.9176C62.304 60.9176 60.676 60.9858 59.068 61.0821V43.5263C59.0026 39.4384 57.3372 35.5402 54.4311 32.6726C51.525 29.805 47.6112 28.1978 43.534 28.1978C39.4568 28.1978 35.543 29.805 32.6369 32.6726C29.7308 35.5402 28.0654 39.4384 28 43.5263V84.6703C28.0654 88.7581 29.7308 92.6563 32.6369 95.5239C35.543 98.3915 39.4568 99.9987 43.534 99.9987C47.6112 99.9987 51.525 98.3915 54.4311 95.5239C57.3372 92.6563 59.0026 88.7581 59.068 84.6703V67.4554C60.668 67.3471 62.304 67.2789 64 67.2789C65.696 67.2789 67.324 67.2107 68.932 67.1145V84.6703C68.9974 88.7581 70.6628 92.6563 73.5689 95.5239C76.475 98.3915 80.3888 99.9987 84.466 99.9987C88.5432 99.9987 92.4571 98.3915 95.3631 95.5239C98.2692 92.6563 99.9346 88.7581 100 84.6703V43.5263C99.9894 39.4034 98.3481 35.4531 95.4362 32.5423C92.5243 29.6314 88.5797 27.9979 84.468 28V28ZM43.532 34.3613C45.959 34.3603 48.2873 35.3246 50.006 37.0428C51.7248 38.761 52.6936 41.0927 52.7 43.5263V61.7559C48.1551 62.4163 43.7169 63.6745 39.5 65.4981C37.6729 66.3021 35.953 67.3315 34.38 68.5624V43.5263C34.3863 41.0954 35.353 38.7662 37.0683 37.0485C38.7836 35.3307 41.1078 34.3645 43.532 34.3613V34.3613ZM52.7 84.6703C52.7 87.1084 51.7341 89.4467 50.0148 91.1707C48.2954 92.8947 45.9635 93.8633 43.532 93.8633C41.1005 93.8633 38.7686 92.8947 37.0492 91.1707C35.3299 89.4467 34.364 87.1084 34.364 84.6703V80.543C34.364 76.8971 37.244 73.4437 42.072 71.2939C45.4739 69.8222 49.0433 68.7755 52.7 68.1774V84.6703V84.6703ZM84.468 93.8352C82.041 93.8363 79.7127 92.8719 77.994 91.1537C76.2752 89.4356 75.3064 87.1039 75.3 84.6703V66.4406C79.8449 65.7803 84.2831 64.522 88.5 62.6985C90.3271 61.8944 92.047 60.865 93.62 59.6341V84.6703C93.6137 87.1011 92.647 89.4304 90.9317 91.1481C89.2164 92.8658 86.8922 93.832 84.468 93.8352V93.8352ZM85.928 56.8786C82.5261 58.3503 78.9567 59.397 75.3 59.9951V43.5263C75.3 41.0881 76.2659 38.7498 77.9852 37.0258C79.7046 35.3018 82.0365 34.3332 84.468 34.3332C86.8995 34.3332 89.2314 35.3018 90.9508 37.0258C92.6701 38.7498 93.636 41.0881 93.636 43.5263V47.6535C93.636 51.2834 90.756 54.7368 85.928 56.8786Z" fill="white"/></g><defs><linearGradient id="paint0_linear_101_2001" x1="8.10666" y1="118.464" x2="119.469" y2="7.10361" gradientUnits="userSpaceOnUse"><stop stop-color="#00AEE9"/><stop offset="1" stop-color="#69FABD"/></linearGradient><clipPath id="clip0_101_2001"><rect width="72" height="72" fill="white" transform="translate(28 28)"/></clipPath></defs></svg>

<svg xmlns="http://www.w3.org/2000/svg" fill="none" viewBox="0 0 128 128"><rect width="128" height="128" fill="url(#a)" rx="64"/><g clip-path="url(#b)"><path fill="#fff" d="M84.468 28a15.502 15.502 0 0 0-10.97 4.54 15.588 15.588 0 0 0-4.566 10.986v17.215c-1.6.108-3.236.177-4.932.177-1.696 0-3.324.068-4.932.164V43.526a15.599 15.599 0 0 0-4.637-10.853 15.514 15.514 0 0 0-10.897-4.475 15.514 15.514 0 0 0-10.897 4.475A15.599 15.599 0 0 0 28 43.526V84.67a15.599 15.599 0 0 0 4.637 10.854 15.514 15.514 0 0 0 10.897 4.475c4.077 0 7.991-1.608 10.897-4.475a15.599 15.599 0 0 0 4.637-10.854V67.455c1.6-.108 3.236-.176 4.932-.176 1.696 0 3.324-.068 4.932-.164V84.67a15.599 15.599 0 0 0 4.637 10.854 15.514 15.514 0 0 0 10.897 4.475c4.077 0 7.991-1.608 10.897-4.475A15.599 15.599 0 0 0 100 84.67V43.526a15.588 15.588 0 0 0-4.564-10.984A15.502 15.502 0 0 0 84.468 28m-40.936 6.361a9.151 9.151 0 0 1 6.474 2.682 9.202 9.202 0 0 1 2.694 6.483v18.23a52.146 52.146 0 0 0-13.2 3.742 23.982 23.982 0 0 0-5.12 3.064V43.526a9.201 9.201 0 0 1 2.688-6.478 9.151 9.151 0 0 1 6.464-2.687m9.168 50.31a9.206 9.206 0 0 1-2.685 6.5 9.156 9.156 0 0 1-6.483 2.692 9.156 9.156 0 0 1-6.483-2.692 9.206 9.206 0 0 1-2.685-6.5v-4.128c0-3.646 2.88-7.1 7.708-9.25A45.104 45.104 0 0 1 52.7 68.178zm31.768 9.164a9.151 9.151 0 0 1-6.474-2.681A9.201 9.201 0 0 1 75.3 84.67V66.44A52.146 52.146 0 0 0 88.5 62.7a23.987 23.987 0 0 0 5.12-3.065V84.67a9.201 9.201 0 0 1-2.688 6.478 9.152 9.152 0 0 1-6.464 2.687m1.46-36.956A45.104 45.104 0 0 1 75.3 59.995V43.526c0-2.438.966-4.776 2.685-6.5a9.156 9.156 0 0 1 6.483-2.693c2.432 0 4.763.969 6.483 2.693a9.206 9.206 0 0 1 2.685 6.5v4.127c0 3.63-2.88 7.084-7.708 9.226"/></g><defs><linearGradient id="a" x1="8.107" x2="119.469" y1="118.464" y2="7.104" gradientUnits="userSpaceOnUse"><stop stop-color="#00AEE9"/><stop offset="1" stop-color="#69FABD"/></linearGradient><clipPath id="b"><path fill="#fff" d="M28 28h72v72H28z"/></clipPath></defs></svg>
